svgs/image_resizer.svg

<svg width="192" height="192" viewBox="0 0 192 192" fill="none" xmlns="http://www.w3.org/2000/svg">
<path d="M124 57V69.5H137" stroke="black" stroke-width="10" stroke-linecap="round" stroke-linejoin="round"/>
<path d="M158.5 69H171V56" stroke="black" stroke-width="10" stroke-linecap="round" stroke-linejoin="round"/>
<path d="M136.5 25L124 25V38" stroke="black" stroke-width="10" stroke-linecap="round" stroke-linejoin="round"/>
<path d="M171 36.5V24H158" stroke="black" stroke-width="10" stroke-linecap="round" stroke-linejoin="round"/>
<path d="M24.6537 161.398C24.6537 161.398 36.1512 128.571 53.845 126.236C65.8711 124.651 70.9071 137.006 83.0363 136.853C108.359 136.53 108.491 84.1713 133.458 88.4208C142.713 89.9963 157.341 106.334 157.341 106.334" stroke="black" stroke-width="8" stroke-linecap="round" stroke-linejoin="round"/>
<path d="M65.787 69.516C65.787 76.8441 59.8462 82.7847 52.5181 82.7847C45.1901 82.7847 39.2494 76.8441 39.2494 69.516C39.2494 62.1879 45.1901 56.2472 52.5181 56.2472C59.8462 56.2472 65.787 62.1879 65.787 69.516Z" stroke="black" stroke-width="6"/>
<path d="M120 36.0093H22V168.034H163.312V72.1622" stroke="black" stroke-width="12" stroke-linecap="round" stroke-linejoin="round"/>
<path d="M147.92 33.054V65.4298M147.92 33.054L132.24 46.9258M147.92 33.054L162.395 46.9258" stroke="black" stroke-width="8" stroke-linecap="round" stroke-linejoin="round"/>
</svg>

<svg width="192" height="192" viewBox="0 0 192 192" fill="none" xmlns="http://www.w3.org/2000/svg"><path d="M124 57v12.5h13M158.5 69H171V56M136.5 25H124v13M171 36.5V24h-13" stroke="#000" stroke-width="10" stroke-linecap="round" stroke-linejoin="round"/><path d="M24.654 161.398s11.497-32.827 29.191-35.162c12.026-1.585 17.062 10.77 29.191 10.617 25.323-.323 25.455-52.682 50.422-48.432 9.255 1.575 23.883 17.913 23.883 17.913" stroke="#000" stroke-width="8" stroke-linecap="round" stroke-linejoin="round"/><path d="M65.787 69.516c0 7.328-5.94 13.269-13.269 13.269-7.328 0-13.269-5.94-13.269-13.269 0-7.328 5.941-13.269 13.27-13.269 7.327 0 13.268 5.94 13.268 13.269Z" stroke="#000" stroke-width="6"/><path d="M120 36.01H22v132.024h141.312V72.162" stroke="#000" stroke-width="12" stroke-linecap="round" stroke-linejoin="round"/><path d="M147.92 33.054V65.43m0-32.376-15.68 13.872m15.68-13.872 14.475 13.872" stroke="#000" stroke-width="8" stroke-linecap="round" stroke-linejoin="round"/></svg>
